X:12091
T:Nottingham Races. JC.108
M:2/4
L:1/8
Q:160
S:John Clare,Poet,Helpston. (1793-1864)
R:Misc.
O:England
A:Northamptonshire
N:
Z:P Headford
K:D
d/e/f/e/ dd|B/c/d/c/ AF|GFED|CEE2|!
d/e/f/e/ dA|B/c/d/c/ Bc|dcBA|E^GA2:|!
|:A/B/c/B/ AB|c/d/e/d/ cd|efgf|e/d/c/B/A2|!
BGdB|AFfe|gfed|Acd2:|!
|:dcdc|B2Ad|cdef|gage|!dcdc|B2Ad|cd "qu's"f/e/d/c/|d4:|]


